img/mobile-images/example__desc-term.svg

<svg width="124" height="56" viewBox="0 0 124 56" fill="none" xmlns="http://www.w3.org/2000/svg">
<path fill-rule="evenodd" clip-rule="evenodd" d="M3 1H121C122.105 1 123 1.89543 123 3V53C123 54.1046 122.105 55 121 55H105V56H121C122.657 56 124 54.6569 124 53V3C124 1.34315 122.657 0 121 0H3C1.34315 0 0 1.34314 0 3V53C0 54.6569 1.34314 56 3 56H18V55H3C1.89543 55 1 54.1046 1 53V3C1 1.89543 1.89543 1 3 1Z" fill="#CDCDCD"/>
</svg>

<svg width="124" height="56" fill="none" xmlns="http://www.w3.org/2000/svg"><path fill-rule="evenodd" clip-rule="evenodd" d="M3 1h118a2 2 0 012 2v50a2 2 0 01-2 2h-16v1h16a3 3 0 003-3V3a3 3 0 00-3-3H3a3 3 0 00-3 3v50a3 3 0 003 3h15v-1H3a2 2 0 01-2-2V3a2 2 0 012-2z" fill="#CDCDCD"/></svg>
